Mirae1/images/add.svg

<svg width="34" height="35" viewBox="0 0 34 35" fill="none" xmlns="http://www.w3.org/2000/svg">
<path d="M17 11.5883V24.3883M10.6 17.9883H23.4M33 17.9883C33 26.8248 25.8366 33.9883 17 33.9883C8.16344 33.9883 1 26.8248 1 17.9883C1 9.15173 8.16344 1.98828 17 1.98828C25.8366 1.98828 33 9.15173 33 17.9883Z" stroke="#00427A" stroke-width="2" stroke-linecap="round" stroke-linejoin="round"/>
</svg>

<svg width="34" height="35" fill="none" xmlns="http://www.w3.org/2000/svg"><path d="M17 11.588v12.8m-6.4-6.4h12.8m9.6 0c0 8.837-7.163 16-16 16s-16-7.163-16-16c0-8.836 7.163-16 16-16s16 7.164 16 16z" stroke="#00427A" stroke-width="2" stroke-linecap="round" stroke-linejoin="round"/></svg>
